src/icons/star-full.svg

<svg viewBox="0 0 24 24" fill="none" xmlns="http://www.w3.org/2000/svg">
<path d="M7.22267 21.1611L12.0162 17.6505L16.8097 21.1611C17.7323 21.8588 18.8352 21.2287 18.4075 19.991L16.5395 14.3648L21.4456 10.8315C22.4359 10.1113 22.0082 8.96366 20.8831 8.96366H14.8067L13.0064 3.35998C12.6687 2.27975 11.3634 2.27975 11.026 3.35998L9.20299 8.96366H3.12679C2.00155 8.96366 1.55145 10.1113 2.56417 10.8315L7.49268 14.3648L5.60231 19.991C5.17471 21.2287 6.27745 21.8588 7.22267 21.1611Z" fill="currentColor"/>
</svg>

<svg viewBox="0 0 24 24" fill="none" xmlns="http://www.w3.org/2000/svg"><path d="m7.223 21.161 4.793-3.51 4.794 3.51c.922.698 2.025.068 1.598-1.17l-1.869-5.626 4.907-3.534c.99-.72.562-1.867-.563-1.867h-6.076l-1.8-5.604c-.338-1.08-1.644-1.08-1.981 0L9.203 8.964H3.127c-1.125 0-1.576 1.147-.563 1.867l4.929 3.534-1.89 5.626c-.428 1.238.674 1.868 1.62 1.17z" fill="currentColor"/></svg>
